storage/app/icons/phosphoricons/duotone/key-return-duotone.svg

<svg xmlns="http://www.w3.org/2000/svg" fill="currentColor" viewBox="0 0 256 256"><path d="M224 56v144a8 8 0 0 1-8 8H40a8 8 0 0 1-8-8V56a8 8 0 0 1 8-8h176a8 8 0 0 1 8 8" opacity=".2"/><path d="M184 104v32a8 8 0 0 1-8 8H99.31l10.35 10.34a8 8 0 0 1-11.32 11.32l-24-24a8 8 0 0 1 0-11.32l24-24a8 8 0 0 1 11.32 11.32L99.31 128H168v-24a8 8 0 0 1 16 0m48-48v144a16 16 0 0 1-16 16H40a16 16 0 0 1-16-16V56a16 16 0 0 1 16-16h176a16 16 0 0 1 16 16m-16 144V56H40v144z"/></svg>

<svg xmlns="http://www.w3.org/2000/svg" viewBox="0 0 256 256" fill="currentColor"><path d="M224,56V200a8,8,0,0,1-8,8H40a8,8,0,0,1-8-8V56a8,8,0,0,1,8-8H216A8,8,0,0,1,224,56Z" opacity="0.2"/><path d="M184,104v32a8,8,0,0,1-8,8H99.31l10.35,10.34a8,8,0,0,1-11.32,11.32l-24-24a8,8,0,0,1,0-11.32l24-24a8,8,0,0,1,11.32,11.32L99.31,128H168V104a8,8,0,0,1,16,0Zm48-48V200a16,16,0,0,1-16,16H40a16,16,0,0,1-16-16V56A16,16,0,0,1,40,40H216A16,16,0,0,1,232,56ZM216,200V56H40V200H216Z"/></svg>
